src/lib/packages/icons/src/assets/filled/award.svg

<svg width="24" height="24" viewBox="0 0 24 24" fill="none" xmlns="http://www.w3.org/2000/svg">
<path d="M17.5 21L14.73 19.89C13.3 19.32 11.7 19.32 10.27 19.89L7.49998 21L8.8701 16.18C8.9901 16.2 9.09995 16.2099 9.21995 16.2199C9.28995 16.2199 9.35992 16.23 9.43992 16.23H9.70994L9.90989 16.43C10.5999 17.12 11.52 17.5 12.5 17.5C13.48 17.5 14.4001 17.12 15.0901 16.43L15.29 16.23H15.56C15.64 16.23 15.71 16.2199 15.78 16.2199C15.9 16.2099 16.0099 16.2 16.1299 16.18L17.5 21ZM18.3659 11.031L18.0471 11.35C17.8441 11.553 17.73 11.8289 17.73 12.1159V12.5639C17.73 13.7269 16.8109 14.6689 15.6599 14.7199C15.6279 14.7209 15.5969 14.73 15.5639 14.73H15.1159C14.8289 14.73 14.5531 14.844 14.3501 15.047L14.031 15.3659C13.185 16.2119 11.814 16.2119 10.969 15.3659L10.6499 15.047C10.4469 14.844 10.171 14.73 9.88401 14.73H9.43601C9.40301 14.73 9.37307 14.7219 9.34007 14.7199C8.19007 14.6689 7.27 13.7269 7.27 12.5639V12.1159C7.27 11.8289 7.15586 11.553 6.95286 11.35L6.63401 11.031C5.78801 10.185 5.78801 8.81397 6.63401 7.96897L6.95286 7.65C7.15586 7.447 7.27 7.17101 7.27 6.88401V6.43601C7.27 5.24001 8.23904 4.27 9.43504 4.27H9.88304C10.17 4.27 10.4459 4.15598 10.6489 3.95298L10.968 3.63401C11.814 2.78801 13.185 2.78801 14.03 3.63401L14.3491 3.95298C14.5521 4.15598 14.828 4.27 15.115 4.27H15.563C16.759 4.27 17.728 5.23901 17.728 6.43601V6.88401C17.728 7.17101 17.8419 7.447 18.0449 7.65L18.364 7.96897C19.211 8.81397 19.2109 10.186 18.3659 11.031ZM15 9.49998C15 8.11898 13.881 6.99998 12.5 6.99998C11.119 6.99998 9.99998 8.11898 9.99998 9.49998C9.99998 10.881 11.119 12 12.5 12C13.881 12 15 10.881 15 9.49998Z" fill="currentColor"/>
</svg>

<svg xmlns="http://www.w3.org/2000/svg" width="24" height="24" fill="none"><path fill="currentColor" d="m17.5 21-2.77-1.11a6.03 6.03 0 0 0-4.46 0L7.5 21l1.37-4.82c.12.02.23.03.35.04.07 0 .14.01.22.01h.27l.2.2c.69.69 1.61 1.07 2.59 1.07.98 0 1.9-.38 2.59-1.07l.2-.2h.27c.08 0 .15-.01.22-.01.12-.01.23-.02.35-.04L17.5 21Zm.866-9.969-.319.319a1.084 1.084 0 0 0-.317.766v.448a2.16 2.16 0 0 1-2.07 2.156c-.032 0-.063.01-.096.01h-.448c-.287 0-.563.114-.766.317l-.319.319a2.164 2.164 0 0 1-3.062 0l-.32-.319a1.084 1.084 0 0 0-.765-.317h-.448c-.033 0-.063-.008-.096-.01a2.161 2.161 0 0 1-2.07-2.156v-.448c0-.287-.114-.563-.317-.766l-.319-.319a2.164 2.164 0 0 1 0-3.062l.319-.319c.203-.203.317-.479.317-.766v-.448c0-1.196.969-2.166 2.165-2.166h.448c.287 0 .563-.114.766-.317l.319-.319a2.164 2.164 0 0 1 3.062 0l.32.319c.202.203.478.317.765.317h.448c1.196 0 2.165.969 2.165 2.166v.448c0 .287.114.563.317.766l.319.319c.847.845.847 2.217.002 3.062ZM15 9.5a2.5 2.5 0 1 0-5 0 2.5 2.5 0 0 0 5 0Z"/></svg>
